packages/foundations/assets/icons/functional/images/environment/cloud_28_filled.svg

<svg width="28" height="28" viewBox="0 0 28 28" fill="none" xmlns="http://www.w3.org/2000/svg">
<g clip-path="url(#clip0_2206_3093)">
<rect width="28" height="28" fill="white"/>
<path fill-rule="evenodd" clip-rule="evenodd" d="M17.0625 5.25C15.0215 5.25 12.9283 6.34268 11.7586 7.94604L11.6394 8.09666C11.1317 7.95041 10.602 7.875 10.0625 7.875L9.8507 7.87889C7.3197 7.97202 5.18015 9.72732 4.55778 12.129L4.49777 12.3163C2.80807 13.3534 1.75 15.1172 1.75 17.0625C1.75 20.2214 4.50843 22.75 7.875 22.75L20.3415 22.7464C23.6258 22.633 26.25 20.1405 26.25 17.0625L26.2452 16.8368C26.1693 15.0386 25.1896 13.4169 23.6527 12.4118C23.6342 12.0793 23.625 11.8796 23.625 11.8125C23.625 8.18813 20.685 5.25 17.0625 5.25Z" fill="#282D37"/>
</g>
<defs>
<clipPath id="clip0_2206_3093">
<rect width="28" height="28" fill="white"/>
</clipPath>
</defs>
</svg>

<svg xmlns="http://www.w3.org/2000/svg" width="28" height="28" fill="none"><g clip-path="url(#a)"><path fill="#fff" d="M0 0h28v28H0z"/><path fill="#282D37" fill-rule="evenodd" d="M17.063 5.25c-2.041 0-4.135 1.093-5.304 2.696l-.12.15a5.7 5.7 0 0 0-1.576-.221l-.212.004a5.69 5.69 0 0 0-5.293 4.25l-.06.187c-1.69 1.037-2.748 2.801-2.748 4.746 0 3.16 2.758 5.688 6.125 5.688l12.467-.004c3.284-.113 5.908-2.605 5.908-5.683l-.005-.226c-.076-1.798-1.055-3.42-2.592-4.425a17 17 0 0 1-.028-.6 6.564 6.564 0 0 0-6.562-6.562" clip-rule="evenodd"/></g><defs><clipPath id="a"><path fill="#fff" d="M0 0h28v28H0z"/></clipPath></defs></svg>
